Yaru++-Dark/places/symbolic/folder-symbolic.svg

<svg height="16" width="16" xmlns="http://www.w3.org/2000/svg">
  <path d="m3.994 1c-1.258.015-2.179-.029-2.932.387a1.878 1.878 0 0 0 -.84.996c-.164.438-.222.96-.222 1.617v8c0 .658.058 1.179.223 1.617.164.439.463.79.84.998.752.416 1.673.37 2.931.385h8.012c1.258-.015 2.179.03 2.932-.385.376-.207.675-.56.84-.998.164-.438.222-.96.222-1.617v-6c0-.658-.058-1.179-.223-1.617-.02-.055-.048-.104-.074-.154l-.027-.057a1.838 1.838 0 0 0 -.738-.787c-.753-.416-1.674-.37-2.932-.385h-3.039l-2.022-2h-2.949zm.012 1h2.53l1.765 1.746-1.268 1.254h-3.039c-1.258.015-2.179-.03-2.932.385-.022.012-.04.03-.062.043v-1.428c0-.592.062-1.006.16-1.266s.203-.371.387-.472c.366-.203 1.195-.247 2.459-.262zm5.459 2h2.527c1.264.015 2.092.06 2.46.262.183.1.288.212.386.472s.162.674.162 1.266v6c0 .592-.063 1.006-.16 1.266-.098.26-.203.371-.387.472-.366.202-1.193.247-2.453.262h-8c-1.26-.015-2.087-.06-2.453-.262-.184-.1-.29-.212-.387-.472s-.16-.674-.16-1.266v-4c0-.592.064-1.006.162-1.266s.203-.371.387-.472c.367-.203 1.195-.247 2.459-.262h3.435z" fill="#808080"/>
</svg>

<svg xmlns="http://www.w3.org/2000/svg" width="16" height="16" version="1.1">
 <defs>
   <style id="current-color-scheme" type="text/css">
   .ColorScheme-Text { color: #f2f2f7; } .ColorScheme-Highlight { color: #1AD6AB; }
  </style>
  <linearGradient id="arrongin" x1="0%" x2="0%" y1="0%" y2="100%">
   <stop offset="0%" style="stop-color: #dd9b44; stop-opacity: 1"/>
   <stop offset="100%" style="stop-color: #ad6c16; stop-opacity: 1"/>
  </linearGradient>
  <linearGradient id="aurora" x1="0%" x2="0%" y1="0%" y2="100%">
   <stop offset="0%" style="stop-color: #09D4DF; stop-opacity: 1"/>
   <stop offset="100%" style="stop-color: #9269F4; stop-opacity: 1"/>
  </linearGradient>
  <linearGradient id="cyberneon" x1="0%" x2="0%" y1="0%" y2="100%">
    <stop offset="0" style="stop-color: #0abdc6; stop-opacity: 1"/>
    <stop offset="1" style="stop-color: #ea00d9; stop-opacity: 1"/>
  </linearGradient>
  <linearGradient id="fitdance" x1="0%" x2="0%" y1="0%" y2="100%">
   <stop offset="0%" style="stop-color: #1AD6AB; stop-opacity: 1"/>
   <stop offset="100%" style="stop-color: #329DB6; stop-opacity: 1"/>
  </linearGradient>
  <linearGradient id="oomox" x1="0%" x2="0%" y1="0%" y2="100%">
   <stop offset="0%" style="stop-color: #efefe7; stop-opacity: 1"/>
   <stop offset="100%" style="stop-color: #8f8f8b; stop-opacity: 1"/>
  </linearGradient>
  <linearGradient id="rainblue" x1="0%" x2="0%" y1="0%" y2="100%">
   <stop offset="0%" style="stop-color: #00F260; stop-opacity: 1"/>
   <stop offset="100%" style="stop-color: #0575E6; stop-opacity: 1"/>
  </linearGradient>
  <linearGradient id="sunrise" x1="0%" x2="0%" y1="0%" y2="100%">
   <stop offset="0%" style="stop-color: #FF8501; stop-opacity: 1"/>
   <stop offset="100%" style="stop-color: #FFCB01; stop-opacity: 1"/>
  </linearGradient>
  <linearGradient id="telinkrin" x1="0%" x2="0%" y1="0%" y2="100%">
   <stop offset="0%" style="stop-color: #b2ced6; stop-opacity: 1"/>
   <stop offset="100%" style="stop-color: #6da5b7; stop-opacity: 1"/>
  </linearGradient>
  <linearGradient id="60spsycho" x1="0%" x2="0%" y1="0%" y2="100%">
   <stop offset="0%" style="stop-color: #df5940; stop-opacity: 1"/>
   <stop offset="25%" style="stop-color: #d8d15f; stop-opacity: 1"/>
   <stop offset="50%" style="stop-color: #e9882a; stop-opacity: 1"/>
   <stop offset="100%" style="stop-color: #279362; stop-opacity: 1"/>
  </linearGradient>
  <linearGradient id="90ssummer" x1="0%" x2="0%" y1="0%" y2="100%">
   <stop offset="0%" style="stop-color: #f618c7; stop-opacity: 1"/>
   <stop offset="20%" style="stop-color: #94ffab; stop-opacity: 1"/>
   <stop offset="50%" style="stop-color: #fbfd54; stop-opacity: 1"/>
   <stop offset="100%" style="stop-color: #0f83ae; stop-opacity: 1"/>
  </linearGradient>
 </defs>
 <path fill="currentColor" class="ColorScheme-Text" d="M 3.994 1 C 2.736 1.015 1.815 0.971 1.062 1.387 C 0.672 1.608 0.374 1.961 0.222 2.383 C 0.058 2.821 0 3.343 0 4 L 0 12 C 0 12.658 0.058 13.179 0.223 13.617 C 0.387 14.056 0.686 14.407 1.063 14.615 C 1.815 15.031 2.736 14.985 3.994 15 L 12.006 15 C 13.264 14.985 14.185 15.03 14.938 14.615 C 15.314 14.408 15.613 14.055 15.778 13.617 C 15.942 13.179 16 12.657 16 12 L 16 6 C 16 5.342 15.942 4.821 15.777 4.383 C 15.757 4.328 15.729 4.279 15.703 4.229 L 15.676 4.172 C 15.514 3.842 15.257 3.568 14.938 3.385 C 14.185 2.969 13.264 3.015 12.006 3 L 8.967 3 L 6.945 1 L 3.996 1 L 3.994 1 Z"/>
</svg>
